X: 22
T:Staffan Stalledr\"ang
M:2/4
L:1/8
Q:184
C:anon.
O:Sweden
Z:Transcribed by Frank Nordberg - http://www.musicaviva.com
K:G
DG GG|AAG2|BBd2|BB A>D|DE/F/ GG|
AAG2|BBd2|BBA2|A>A AB|cc/c/ BG|A>A AB|
c/e/d/c/ BG|GB dd|ee d>c|Bc/B/ AA|G2 z2|]
W:
W: From "Falaleiro" http://home.t-online.de/home/pheld/homepage.htm

